X: 24618
T: Mac's Fancy
R: jig
M: 6/8
K: Amixolydian
e3 fed|eAA Bcd|eAA gfe|dBG Bcd|
eAA fed|eAA Bcd|g3 gfe|dBG:|
A2 a aea|aea aea|A2 a aef|gfe dBG|
A2 a aea|aea aef|g3 gfe|dBG:|

